X:1
T:Title
%%score 1 { 2 | 3 }
L:1/8
Q:1/4=120
M:6/4
K:C
V:1 bass nm="MusicXML Part"
V:2 treble nm="MusicXML Part"
V:3 bass 
V:1
"^Es war ein König in Thule""^Sanft und frei" E,2 | A,4 A,2 (E,3 E,) E,2 | F,6 C,4 C,2 | %3
w: 1. Es|war ein Kö- nig in|Thu- le, gar|
w: 2. Es|ging ihm nichts * da-|rü- ber, er|
w: 3. Und|als er kam * zu|ster- ben, zählt|
w: 4. Er|sass beim Kö * nigs-|mah- le, die|
w: 5. Dort|stand der a * lte|Ze- cher, trank|
w: 6. Er|sah ihn stür * zen,|trin- ken und|
 D,4"^Musik: Carl Friedrich Zelter (1758-1832)\nText: J. W. von Goethe (1749-1832)" E,2 F,4 D,2 | %4
w: treu bis an das|
w: leert' ihn je- den|
w: er sein' Städt' im|
w: Ri- tter um ihn|
w: letz- te Le- bens-|
w: sin- ken tief ins|
 E,8 z2 E,2 | A,4 A,2 (G,3 G,) G,2 | C,6 D,4 (D,D,) | E,4 F,2 D,4 E,2 | A,,12- | %9
w: Grab, dem|1. ster- bend sei * ne|Buh- le ei- nen|gold- 'nen Be- cher|gab.|
w: Schmaus, die|2. Au- gen gin- gen ihm|ü- ber, so *|oft er trank da-|raus.|
w: Reich, liess|3. al- les sei * nen|Er- ben, den *|Be- cher nicht zu-|gleich.|
w: her, in|4. hoh- er Vä * ter|Saa- le, dort *|auf dem Schloss am|Meer.|
w: glut und|5. warf den heil' * gen|Be- cher hin *|un- ter in die|Flut.|
w: Meer, die|6. Au- gen tä- ten ihm|sin- ken, trank nie|ei- nen Tro- pfen|mehr.|
 !fermata!A,,8 z2 |] %10
w: |
w: |
w: |
w: |
w: |
w: |
V:2
 z2 | [EAc]4 [EAc]2 [EGB]4 [DGB]2 | [CFA]6 [CEG]4 [EG]2 | [A,DF]4 [CE]2 [B,D]4 F2 | E8 z2 [E^GB]2 | %5
 [EAc]4 [EAc]2 [FBd]4 [FBd]2 | [Gce]6 [FAd]4 [FAd]2 | [EAc]4 [CA]2 [DFB]4 [B,E^G]2 | %8
 [CA]4 [^CE]2!>(! [DF]4!>)! D2 |!>(! [A,^C]8!>)! z2 |] %10
V:3
 z2 | A,4 A,2 E,4 E,2 | F,6 C,4 C,2 | D,4 E,2 F,4 [D,A,]2 | [E,^G,]8 z2 E,2 | A,4 A,2 G,4 G,2 | %6
 C,6 D,4 D,2 | E,4 F,2 D,4 E,2 | A,,12 | [A,,,E,]8 z2 |] %10

